lib/assets/buttons/pref_listening_modes.svg

<svg height="24" viewBox="0 0 24 24" width="24" xmlns="http://www.w3.org/2000/svg">
    <path d="m21 3v12.5a3.5 3.5 0 0 1 -3.5 3.5 3.5 3.5 0 0 1 -3.5-3.5 3.5 3.5 0 0 1 3.5-3.5c.54 0 1.05.12 1.5.34v-5.87l-10 2.13v8.9a3.5 3.5 0 0 1 -3.5 3.5 3.5 3.5 0 0 1 -3.5-3.5 3.5 3.5 0 0 1 3.5-3.5c.54 0 1.05.12 1.5.34v-8.34z" />
</svg>

<?xml version="1.0" encoding="UTF-8" standalone="no"?>
<svg
   xmlns:dc="http://purl.org/dc/elements/1.1/"
   xmlns:cc="http://creativecommons.org/ns#"
   xmlns:rdf="http://www.w3.org/1999/02/22-rdf-syntax-ns#"
   xmlns:svg="http://www.w3.org/2000/svg"
   xmlns="http://www.w3.org/2000/svg"
   version="1.1"
   width="24"
   height="24"
   viewBox="0 0 24 24"
   id="svg4">
  <metadata
     id="metadata10">
    <rdf:RDF>
      <cc:Work
         rdf:about="">
        <dc:format>image/svg+xml</dc:format>
        <dc:type
           rdf:resource="http://purl.org/dc/dcmitype/StillImage" />
      </cc:Work>
    </rdf:RDF>
  </metadata>
  <defs
     id="defs8" />
  <path
     d="M21,3V15.5A3.5,3.5 0 0,1 17.5,19A3.5,3.5 0 0,1 14,15.5A3.5,3.5 0 0,1 17.5,12C18.04,12 18.55,12.12 19,12.34V6.47L9,8.6V17.5A3.5,3.5 0 0,1 5.5,21A3.5,3.5 0 0,1 2,17.5A3.5,3.5 0 0,1 5.5,14C6.04,14 6.55,14.12 7,14.34V6L21,3Z"
     id="path2" />
</svg>
